assets/svg/icon_block_comment.svg

<svg width="24" height="24" viewBox="0 0 24 24" fill="none" xmlns="http://www.w3.org/2000/svg">
<path d="M12 21.0039C11.4245 21.0039 10.8743 20.7058 10.4926 20.1846L9.23703 18.4787C9.20797 18.4471 9.11302 18.3998 9.06652 18.3938H8.65188C5.16232 18.3938 3 17.4304 3 12.6347V8.76501C3 4.99601 4.95501 3.00391 8.65188 3.00391H15.3481C19.045 3.00391 21 4.99601 21 8.76304V12.6327C21 16.3998 19.045 18.3919 15.3481 18.3919H14.9296C14.8676 18.3919 14.8017 18.4254 14.761 18.4807L13.5074 20.1826C13.1238 20.7038 12.5735 21.0019 12 21.0019V21.0039ZM8.65188 4.28722C5.65447 4.28722 4.25942 5.70874 4.25942 8.76304V12.6327C4.25942 16.4629 5.61378 17.1085 8.65188 17.1085H9.0704C9.50248 17.1085 9.99849 17.3632 10.2484 17.7147L11.4982 19.4126C11.6435 19.61 11.8217 19.7186 11.9981 19.7186C12.1744 19.7186 12.3526 19.61 12.498 19.4126L13.7535 17.7068C14.0344 17.3316 14.4723 17.1085 14.9277 17.1085H15.3462C18.3436 17.1085 19.7386 15.687 19.7386 12.6327V8.76304C19.7386 5.70874 18.3436 4.28722 15.3462 4.28722H8.65188Z" fill="#5A5E66"/>
<path d="M16.1871 9.40559H7.81485C7.46803 9.40559 7.18514 9.11733 7.18514 8.76393C7.18514 8.41052 7.46803 8.12227 7.81485 8.12227H16.1851C16.532 8.12227 16.8149 8.41052 16.8149 8.76393C16.8149 9.11733 16.532 9.40559 16.1851 9.40559H16.1871Z" fill="#5A5E66"/>
<path d="M12.837 13.2758H7.81485C7.46803 13.2758 7.18514 12.9875 7.18514 12.6341C7.18514 12.2807 7.46803 11.9924 7.81485 11.9924H12.837C13.1839 11.9924 13.4667 12.2807 13.4667 12.6341C13.4667 12.9875 13.1839 13.2758 12.837 13.2758Z" fill="#5A5E66"/>
</svg>

<svg xmlns="http://www.w3.org/2000/svg" width="24" height="24" fill="none"><path fill="#5A5E66" d="M12 21.004c-.575 0-1.126-.298-1.507-.82L9.237 18.48a.4.4 0 0 0-.17-.085h-.415c-3.49 0-5.652-.964-5.652-5.76V8.766c0-3.769 1.955-5.761 5.652-5.761h6.696C19.045 3.004 21 4.996 21 8.763v3.87c0 3.767-1.955 5.759-5.652 5.759h-.418a.22.22 0 0 0-.169.089l-1.254 1.702c-.383.52-.934.819-1.507.819zM8.652 4.287c-2.998 0-4.393 1.422-4.393 4.476v3.87c0 3.83 1.355 4.476 4.393 4.476h.418c.432 0 .928.254 1.178.606l1.25 1.698c.146.197.324.306.5.306s.355-.109.5-.306l1.256-1.706c.28-.375.718-.599 1.174-.599h.418c2.998 0 4.393-1.421 4.393-4.475v-3.87c0-3.054-1.395-4.476-4.393-4.476z"/><path fill="#5A5E66" d="M16.187 9.406H7.815a.637.637 0 0 1-.63-.642c0-.353.283-.642.63-.642h8.37c.347 0 .63.289.63.642a.637.637 0 0 1-.63.642zM12.837 13.276H7.815a.637.637 0 0 1-.63-.642c0-.353.283-.642.63-.642h5.022c.347 0 .63.289.63.642a.637.637 0 0 1-.63.642"/></svg>
